icons/modern/check-mark-button.svg

<svg width="32" height="32" viewBox="0 0 32 32" fill="none" xmlns="http://www.w3.org/2000/svg">
<g filter="url(#filter0_iii_18590_1991)">
<rect x="1.87933" y="2.3125" width="27.875" height="27.875" rx="3.6" fill="url(#paint0_linear_18590_1991)"/>
<rect x="1.87933" y="2.3125" width="27.875" height="27.875" rx="3.6" fill="url(#paint1_radial_18590_1991)"/>
</g>
<g filter="url(#filter1_f_18590_1991)">
<path d="M28.0668 4.8125V27.6875" stroke="url(#paint2_linear_18590_1991)" stroke-width="1.5" stroke-linecap="round"/>
</g>
<g filter="url(#filter2_f_18590_1991)">
<path d="M5.3432 4.125H27.1245" stroke="url(#paint3_linear_18590_1991)" stroke-width="1.5" stroke-linecap="round"/>
</g>
<g filter="url(#filter3_f_18590_1991)">
<path d="M13.4758 23.25C13.0926 23.25 12.7095 23.1066 12.4168 22.8192L6.67238 17.1778C6.08764 16.6035 6.08764 15.672 6.67238 15.0977C7.25712 14.5235 8.20568 14.5235 8.79042 15.0977L13.4758 19.6991L23.6772 9.68069C24.262 9.10644 25.2105 9.10644 25.7953 9.68069C26.38 10.2549 26.38 11.1865 25.7953 11.7607L14.5348 22.8192C14.2428 23.1066 13.859 23.25 13.4758 23.25Z" fill="#53BB7D"/>
</g>
<g filter="url(#filter4_ii_18590_1991)">
<path d="M13.4758 23.25C13.0926 23.25 12.7095 23.1066 12.4168 22.8192L6.67238 17.1778C6.08764 16.6035 6.08764 15.672 6.67238 15.0977C7.25712 14.5235 8.20568 14.5235 8.79042 15.0977L13.4058 19.6303C13.4447 19.6685 13.507 19.6685 13.5459 19.6303L23.6772 9.68069C24.262 9.10644 25.2105 9.10644 25.7953 9.68069C26.38 10.2549 26.38 11.1865 25.7953 11.7607L14.5348 22.8192C14.2428 23.1066 13.859 23.25 13.4758 23.25Z" fill="#FCF2FF"/>
</g>
<defs>
<filter id="filter0_iii_18590_1991" x="1.37933" y="1.3125" width="30.375" height="29.375" filterUnits="userSpaceOnUse" color-interpolation-filters="sRGB">
<feFlood flood-opacity="0" result="BackgroundImageFix"/>
<feBlend mode="normal" in="SourceGraphic" in2="BackgroundImageFix" result="shape"/>
<feColorMatrix in="SourceAlpha" type="matrix" values="0 0 0 0 0 0 0 0 0 0 0 0 0 0 0 0 0 0 127 0" result="hardAlpha"/>
<feOffset dx="2" dy="-1"/>
<feGaussianBlur stdDeviation="1.5"/>
<feComposite in2="hardAlpha" operator="arithmetic" k2="-1" k3="1"/>
<feColorMatrix type="matrix" values="0 0 0 0 0.176471 0 0 0 0 0.521569 0 0 0 0 0.309804 0 0 0 1 0"/>
<feBlend mode="normal" in2="shape" result="effect1_innerShadow_18590_1991"/>
<feColorMatrix in="SourceAlpha" type="matrix" values="0 0 0 0 0 0 0 0 0 0 0 0 0 0 0 0 0 0 127 0" result="hardAlpha"/>
<feOffset dy="-1"/>
<feGaussianBlur stdDeviation="1.5"/>
<feComposite in2="hardAlpha" operator="arithmetic" k2="-1" k3="1"/>
<feColorMatrix type="matrix" values="0 0 0 0 0.25098 0 0 0 0 0.490196 0 0 0 0 0.462745 0 0 0 1 0"/>
<feBlend mode="normal" in2="effect1_innerShadow_18590_1991" result="effect2_innerShadow_18590_1991"/>
<feColorMatrix in="SourceAlpha" type="matrix" values="0 0 0 0 0 0 0 0 0 0 0 0 0 0 0 0 0 0 127 0" result="hardAlpha"/>
<feOffset dx="-0.5" dy="0.5"/>
<feGaussianBlur stdDeviation="0.5"/>
<feComposite in2="hardAlpha" operator="arithmetic" k2="-1" k3="1"/>
<feColorMatrix type="matrix" values="0 0 0 0 0.356863 0 0 0 0 0.905882 0 0 0 0 0.560784 0 0 0 1 0"/>
<feBlend mode="normal" in2="effect2_innerShadow_18590_1991" result="effect3_innerShadow_18590_1991"/>
</filter>
<filter id="filter1_f_18590_1991" x="25.3168" y="2.0625" width="5.5" height="28.375" filterUnits="userSpaceOnUse" color-interpolation-filters="sRGB">
<feFlood flood-opacity="0" result="BackgroundImageFix"/>
<feBlend mode="normal" in="SourceGraphic" in2="BackgroundImageFix" result="shape"/>
<feGaussianBlur stdDeviation="1" result="effect1_foregroundBlur_18590_1991"/>
</filter>
<filter id="filter2_f_18590_1991" x="2.5932" y="1.375" width="27.2812" height="5.5" filterUnits="userSpaceOnUse" color-interpolation-filters="sRGB">
<feFlood flood-opacity="0" result="BackgroundImageFix"/>
<feBlend mode="normal" in="SourceGraphic" in2="BackgroundImageFix" result="shape"/>
<feGaussianBlur stdDeviation="1" result="effect1_foregroundBlur_18590_1991"/>
</filter>
<filter id="filter3_f_18590_1991" x="5.23383" y="8.25" width="22" height="16" filterUnits="userSpaceOnUse" color-interpolation-filters="sRGB">
<feFlood flood-opacity="0" result="BackgroundImageFix"/>
<feBlend mode="normal" in="SourceGraphic" in2="BackgroundImageFix" result="shape"/>
<feGaussianBlur stdDeviation="0.5" result="effect1_foregroundBlur_18590_1991"/>
</filter>
<filter id="filter4_ii_18590_1991" x="5.83383" y="8.85" width="20.8" height="14.8" filterUnits="userSpaceOnUse" color-interpolation-filters="sRGB">
<feFlood flood-opacity="0" result="BackgroundImageFix"/>
<feBlend mode="normal" in="SourceGraphic" in2="BackgroundImageFix" result="shape"/>
<feColorMatrix in="SourceAlpha" type="matrix" values="0 0 0 0 0 0 0 0 0 0 0 0 0 0 0 0 0 0 127 0" result="hardAlpha"/>
<feOffset dx="-0.4" dy="0.4"/>
<feGaussianBlur stdDeviation="0.375"/>
<feComposite in2="hardAlpha" operator="arithmetic" k2="-1" k3="1"/>
<feColorMatrix type="matrix" values="0 0 0 0 0.913725 0 0 0 0 0.886275 0 0 0 0 0.968627 0 0 0 1 0"/>
<feBlend mode="normal" in2="shape" result="effect1_innerShadow_18590_1991"/>
<feColorMatrix in="SourceAlpha" type="matrix" values="0 0 0 0 0 0 0 0 0 0 0 0 0 0 0 0 0 0 127 0" result="hardAlpha"/>
<feOffset dx="0.4" dy="-0.4"/>
<feGaussianBlur stdDeviation="0.2"/>
<feComposite in2="hardAlpha" operator="arithmetic" k2="-1" k3="1"/>
<feColorMatrix type="matrix" values="0 0 0 0 1 0 0 0 0 0.988235 0 0 0 0 1 0 0 0 1 0"/>
<feBlend mode="normal" in2="effect1_innerShadow_18590_1991" result="effect2_innerShadow_18590_1991"/>
</filter>
<linearGradient id="paint0_linear_18590_1991" x1="15.8168" y1="5.88701" x2="15.8168" y2="39.1397" gradientUnits="userSpaceOnUse">
<stop stop-color="#5AD98F"/>
<stop offset="1" stop-color="#51C685"/>
</linearGradient>
<radialGradient id="paint1_radial_18590_1991" cx="0" cy="0" r="1" gradientUnits="userSpaceOnUse" gradientTransform="translate(27.5356 4.40625) rotate(136.771) scale(2.14444 2.50466)">
<stop stop-color="#80FFB3"/>
<stop offset="1" stop-color="#80FFB3" stop-opacity="0"/>
</radialGradient>
<linearGradient id="paint2_linear_18590_1991" x1="28.5668" y1="4.8125" x2="28.5668" y2="27.6875" gradientUnits="userSpaceOnUse">
<stop stop-color="#74FCA8"/>
<stop offset="1" stop-color="#61DB90"/>
</linearGradient>
<linearGradient id="paint3_linear_18590_1991" x1="28.2807" y1="4.37502" x2="2.74945" y2="4.37502" gradientUnits="userSpaceOnUse">
<stop stop-color="#66F39D"/>
<stop offset="1" stop-color="#60E496"/>
</linearGradient>
</defs>
</svg>

<svg width="32" height="32" fill="none" xmlns="http://www.w3.org/2000/svg"><g filter="url(#a)"><rect x="1.879" y="2.313" width="27.875" height="27.875" rx="3.6" fill="url(#b)"/><rect x="1.879" y="2.313" width="27.875" height="27.875" rx="3.6" fill="url(#c)"/></g><g filter="url(#d)"><path d="M28.067 4.813v22.875" stroke="url(#e)" stroke-width="1.5" stroke-linecap="round"/></g><g filter="url(#f)"><path d="M5.343 4.125h21.782" stroke="url(#g)" stroke-width="1.5" stroke-linecap="round"/></g><g filter="url(#h)"><path d="M13.476 23.25c-.383 0-.767-.143-1.06-.43l-5.744-5.642a1.453 1.453 0 0 1 0-2.08 1.517 1.517 0 0 1 2.118 0l4.686 4.601L23.677 9.681a1.517 1.517 0 0 1 2.118 0 1.452 1.452 0 0 1 0 2.08l-11.26 11.058c-.292.288-.676.431-1.06.431Z" fill="#53BB7D"/></g><g filter="url(#i)"><path d="M13.476 23.25c-.383 0-.767-.143-1.06-.43l-5.744-5.642a1.453 1.453 0 0 1 0-2.08 1.517 1.517 0 0 1 2.118 0l4.616 4.532a.1.1 0 0 0 .14 0l10.131-9.95a1.517 1.517 0 0 1 2.118 0 1.452 1.452 0 0 1 0 2.08l-11.26 11.06c-.292.287-.676.43-1.06.43Z" fill="#FCF2FF"/></g><defs><filter id="a" x="1.379" y="1.313" width="30.375" height="29.375" filterUnits="userSpaceOnUse" color-interpolation-filters="sRGB"><feFlood flood-opacity="0" result="BackgroundImageFix"/><feBlend in="SourceGraphic" in2="BackgroundImageFix" result="shape"/><feColorMatrix in="SourceAlpha" values="0 0 0 0 0 0 0 0 0 0 0 0 0 0 0 0 0 0 127 0" result="hardAlpha"/><feOffset dx="2" dy="-1"/><feGaussianBlur stdDeviation="1.5"/><feComposite in2="hardAlpha" operator="arithmetic" k2="-1" k3="1"/><feColorMatrix values="0 0 0 0 0.176471 0 0 0 0 0.521569 0 0 0 0 0.309804 0 0 0 1 0"/><feBlend in2="shape" result="effect1_innerShadow_18590_1991"/><feColorMatrix in="SourceAlpha" values="0 0 0 0 0 0 0 0 0 0 0 0 0 0 0 0 0 0 127 0" result="hardAlpha"/><feOffset dy="-1"/><feGaussianBlur stdDeviation="1.5"/><feComposite in2="hardAlpha" operator="arithmetic" k2="-1" k3="1"/><feColorMatrix values="0 0 0 0 0.25098 0 0 0 0 0.490196 0 0 0 0 0.462745 0 0 0 1 0"/><feBlend in2="effect1_innerShadow_18590_1991" result="effect2_innerShadow_18590_1991"/><feColorMatrix in="SourceAlpha" values="0 0 0 0 0 0 0 0 0 0 0 0 0 0 0 0 0 0 127 0" result="hardAlpha"/><feOffset dx="-.5" dy=".5"/><feGaussianBlur stdDeviation=".5"/><feComposite in2="hardAlpha" operator="arithmetic" k2="-1" k3="1"/><feColorMatrix values="0 0 0 0 0.356863 0 0 0 0 0.905882 0 0 0 0 0.560784 0 0 0 1 0"/><feBlend in2="effect2_innerShadow_18590_1991" result="effect3_innerShadow_18590_1991"/></filter><filter id="d" x="25.317" y="2.063" width="5.5" height="28.375" filterUnits="userSpaceOnUse" color-interpolation-filters="sRGB"><feFlood flood-opacity="0" result="BackgroundImageFix"/><feBlend in="SourceGraphic" in2="BackgroundImageFix" result="shape"/><feGaussianBlur stdDeviation="1" result="effect1_foregroundBlur_18590_1991"/></filter><filter id="f" x="2.593" y="1.375" width="27.281" height="5.5" filterUnits="userSpaceOnUse" color-interpolation-filters="sRGB"><feFlood flood-opacity="0" result="BackgroundImageFix"/><feBlend in="SourceGraphic" in2="BackgroundImageFix" result="shape"/><feGaussianBlur stdDeviation="1" result="effect1_foregroundBlur_18590_1991"/></filter><filter id="h" x="5.234" y="8.25" width="22" height="16" filterUnits="userSpaceOnUse" color-interpolation-filters="sRGB"><feFlood flood-opacity="0" result="BackgroundImageFix"/><feBlend in="SourceGraphic" in2="BackgroundImageFix" result="shape"/><feGaussianBlur stdDeviation=".5" result="effect1_foregroundBlur_18590_1991"/></filter><filter id="i" x="5.834" y="8.85" width="20.8" height="14.8" filterUnits="userSpaceOnUse" color-interpolation-filters="sRGB"><feFlood flood-opacity="0" result="BackgroundImageFix"/><feBlend in="SourceGraphic" in2="BackgroundImageFix" result="shape"/><feColorMatrix in="SourceAlpha" values="0 0 0 0 0 0 0 0 0 0 0 0 0 0 0 0 0 0 127 0" result="hardAlpha"/><feOffset dx="-.4" dy=".4"/><feGaussianBlur stdDeviation=".375"/><feComposite in2="hardAlpha" operator="arithmetic" k2="-1" k3="1"/><feColorMatrix values="0 0 0 0 0.913725 0 0 0 0 0.886275 0 0 0 0 0.968627 0 0 0 1 0"/><feBlend in2="shape" result="effect1_innerShadow_18590_1991"/><feColorMatrix in="SourceAlpha" values="0 0 0 0 0 0 0 0 0 0 0 0 0 0 0 0 0 0 127 0" result="hardAlpha"/><feOffset dx=".4" dy="-.4"/><feGaussianBlur stdDeviation=".2"/><feComposite in2="hardAlpha" operator="arithmetic" k2="-1" k3="1"/><feColorMatrix values="0 0 0 0 1 0 0 0 0 0.988235 0 0 0 0 1 0 0 0 1 0"/><feBlend in2="effect1_innerShadow_18590_1991" result="effect2_innerShadow_18590_1991"/></filter><linearGradient id="b" x1="15.817" y1="5.887" x2="15.817" y2="39.14" gradientUnits="userSpaceOnUse"><stop stop-color="#5AD98F"/><stop offset="1" stop-color="#51C685"/></linearGradient><linearGradient id="e" x1="28.567" y1="4.813" x2="28.567" y2="27.688" gradientUnits="userSpaceOnUse"><stop stop-color="#74FCA8"/><stop offset="1" stop-color="#61DB90"/></linearGradient><linearGradient id="g" x1="28.281" y1="4.375" x2="2.749" y2="4.375" gradientUnits="userSpaceOnUse"><stop stop-color="#66F39D"/><stop offset="1" stop-color="#60E496"/></linearGradient><radialGradient id="c" cx="0" cy="0" r="1" gradientUnits="userSpaceOnUse" gradientTransform="matrix(-1.56249 1.46876 -1.71548 -1.82495 27.536 4.406)"><stop stop-color="#80FFB3"/><stop offset="1" stop-color="#80FFB3" stop-opacity="0"/></radialGradient></defs></svg>
